!!!OTL: 1032. Lott ist todt.
!!!ODT: 1830
!!!ARE: Europa, Mitteleuropa, Deutschland, Thueringen; Sachsen
!!!SCT: E1032
!!!TXL: @@DE
!!!YEM: Copyright 1995, estate of Helmut Schaffrath.
**kern	**text
*ICvox	*
*M2/4	*
*k[f#]	*
*G:	*
=1	=1
!LO:TX:a:t=Ziemlich rasch.	!
!LO:TX:a:t=Mündl. um 1830 aus Sachſen und Thüringen.	!
{8b	Lott
8dd	iſt
4g	todt,
=2	=2
8b	Lott
8dd	iſt
4g}	todt,
=3	=3
{8cc	Julchen
8ee	.
8gg	liegt
8ee	am
=4	=4
8eeL	Sterben;
8ddJ	.
4dd}	.
=5	=5
{8b	d'r
8dd	Freier
4g	kommt,
=6	=6
8b	d'r
8dd	Freier
4g}	kommt,
=7	=7
{8a	der
8b	will
8cc	Al-
8f#	-les
=8	=8
8aL	er-
8gJ	.
4g}	-ben.
==	==
!!!AGN: Tanz - Lied
!!!ONB: ESAC (Essen Associative Code) Database: ERK3
!!!AMT: simple duple
!!!AIN: vox
!!!EED: Helmut Schaffrath
!!!EEV: 1.0
!!!GTL: Tanz- und Spiellieder
!!!URL-scan: https://rosdok.uni-rostock.de/mcrviewer/recordIdentifier/rosdok_ppn745177662/iview2/phys_0785.iview2?x=0&y=1620.1008089855313&scale=0.6479838709677419&rotation=0&layout=singlePageLayout
!!!ENC: Anna Maria Matuszewska
!!!EEV: 2024/12/23
*-	*-
